images/twitter.svg

<svg width="20" height="20" viewBox="0 0 20 20" fill="none" xmlns="http://www.w3.org/2000/svg">
<g clip-path="url(#clip0_1:458)">
<path d="M20 3.79875C19.2563 4.125 18.4637 4.34125 17.6375 4.44625C18.4875 3.93875 19.1363 3.14125 19.4412 2.18C18.6488 2.6525 17.7738 2.98625 16.8412 3.1725C16.0887 2.37125 15.0162 1.875 13.8462 1.875C11.5763 1.875 9.74875 3.7175 9.74875 5.97625C9.74875 6.30125 9.77625 6.61375 9.84375 6.91125C6.435 6.745 3.41875 5.11125 1.3925 2.6225C1.03875 3.23625 0.83125 3.93875 0.83125 4.695C0.83125 6.115 1.5625 7.37375 2.6525 8.1025C1.99375 8.09 1.3475 7.89875 0.8 7.5975C0.8 7.61 0.8 7.62625 0.8 7.6425C0.8 9.635 2.22125 11.29 4.085 11.6712C3.75125 11.7625 3.3875 11.8062 3.01 11.8062C2.7475 11.8062 2.4825 11.7913 2.23375 11.7362C2.765 13.36 4.2725 14.5538 6.065 14.5925C4.67 15.6838 2.89875 16.3412 0.98125 16.3412C0.645 16.3412 0.3225 16.3263 0 16.285C1.81625 17.4563 3.96875 18.125 6.29 18.125C13.835 18.125 17.96 11.875 17.96 6.4575C17.96 6.27625 17.9538 6.10125 17.945 5.9275C18.7588 5.35 19.4425 4.62875 20 3.79875Z" fill="#AFB1B8"/>
</g>
<defs>
<clipPath id="clip0_1:458">
<rect width="20" height="20" fill="white"/>
</clipPath>
</defs>
</svg>

<svg width="20" height="20" fill="none" xmlns="http://www.w3.org/2000/svg"><g clip-path="url(#a)"><path d="M20 3.8c-.74.33-1.54.54-2.36.65.85-.51 1.5-1.3 1.8-2.27-.8.47-1.67.8-2.6 1a4.1 4.1 0 0 0-7 3.73A11.6 11.6 0 0 1 1.4 2.62 4.13 4.13 0 0 0 2.65 8.1C2 8.1 1.35 7.9.8 7.6v.04c0 2 1.42 3.65 3.29 4.03a4.09 4.09 0 0 1-1.86.07 4.14 4.14 0 0 0 3.84 2.85A8.24 8.24 0 0 1 0 16.3a11.54 11.54 0 0 0 6.29 1.84c7.55 0 11.67-6.25 11.67-11.67 0-.18 0-.36-.02-.53.82-.58 1.5-1.3 2.06-2.13Z" fill="#AFB1B8"/></g><defs><clipPath id="a"><path fill="#fff" d="M0 0h20v20H0z"/></clipPath></defs></svg>
